X:1
T: Five for the Symbol at your Door
N:
C:Tune is "Pierlala"
S:
A:
O:
R:
M:6/8
K:G
I:speed 150
%W: A1
% voice 1 (1 lines, 34 notes)
K:G
M:6/8
L:1/16
G2 |G4 d2 d4 e2 d4 c2 B4 d2 c4 c2 B2 A2 G2 G6G4 G2 |A4 B2 c4 d2 c4 B2 A4 g2 f2 e2 d2 ^c2 d2 e2 d6d4 G2 |
%W: A2
% voice 1 (1 lines, 33 notes)
G4 d2 d4 e2 d4 c2 B4 d2 c4 c2 B2 A2 G2 G6G4 G2 |A4 B2 c4 d2 c4 B2 A4 g2 f2 e2 d2 ^c2 d2 e2 d6d4 d2 |
%W: B1
% voice 1 (1 lines, 34 notes)
g4 f2 e4 f2 g4 d2 d2 e2 =f2 e4 d2 c4 e2 d4 c2 B4 d2 |c4 c2 B2 A2 G2 F4 G2 A4 B2 c4 c2 B2 A2 G2 G6G4 d2 |
%W: B2
% voice 1 (1 lines, 33 notes)
g4 f2 e4 f2 g4 d2 d2 e2 =f2 e4 d2 c4 e2 d4 c2 B4 d2 |c4 c2 B2 A2 G2 F4 G2 A4 B2 c4 c2 B2 A2 G2 G6G4 ||
